!!!!SEGMENT: d-b--slg-bohn-ms-mus-111--015_jarzebski-adam--canzoni-e-concerti-15-kustrinella.krn
!!!cenid: 16xx:1788
!!!COM: Jarzębski, Adam
!!!COM-rismID: pe30017782
!!!CDT:
!!!CNT:
!!!GTL: Canzoni e Concerti
!!!OTL: 15. Küstrinella
!!!PDT: 1627
!!!AGN:
!!!SMS-siglum: D-B
!!!SMS-shelfmark: Slg Bohn Ms.mus. 111
!!!SMS-shelfwork: 015 G
!!!SMS-variant:
!!!SMS-altvar:
!!!NIFC-rismSourceID: 1001062014
!!!NIFC-rismChildID: 1001062014
!!!NIFC-islandoraID:
!!!URL-pdf-islandora:
!!!URL-scan: https://digital.staatsbibliothek-berlin.de/werkansicht/?PPN=PPN1049147219
!!!ONB-nifc: UWAGA: Prima vox: s. 27, Seconda vox: s. 87, Bassus sive Vox Tertia: s. 126, Basso continuo: s. 174. Uwaga: proszę wpisywać partie tylko występujące w danym koncercie i nazywać partie wg określeń podawanych przy danym utworze. Kody instr. dla humdrumowców podane zostaną na forum.
!!!AIN: 2 empty 1 tenor 1 vox
!!!key: G
!!!filter-modern: sic -sq | shed -e "s/TX(.*):t=P:/tx$1:t=P:/LG" | shed -k -e "s/[<>]//g" | shed -e "s/^(\d+[\/\\]right)/$1yy/I;s/^(\d+[\/\\]left)/$1yy/I" | shed -k -e "s/#X/#/g" | shed -k -e "s/-X/-/g" | shed -k -e "s/n//g" | shed -k -e "s/LO:N:acc/LO:n:acc:/L" | shed -e "s/^custos:/Xcustos:/I" | shed -k -e "s/LO:N:vis/LO:n:vis:/L" | shed -e "s/:rj/:RJ/L" | shed -e "s/LO:DY:(a|b|rj)/LO:dy:$1/L" | shed -e "s/-//B" | modori -m | tie -s | autostem -r 
**kern	**kern	**kern	**kern
*	*group1	*group1	*group1
*part4	*part3	*part2	*part1
*staff4	*staff3	*staff2	*staff1
*Iempty	*Iempty	*Itenor	*Ivox
*I"Baſso Continuo	*I"Tertia Vox	*I"Tenore.	*I"Canto
*mI"Basso continuo	*mI"Terzo voce	*mI"Tenore	*mI"Soprano
*I'bc	*I'V 3	*I'T	*I'S
*ICklav	*	*	*
*IGcont	*	*	*
*clefC1	*clefC4	*clefC3	*clefG2
*mclefG2	*mclefGv2	*mclefGv2	*
*k[]	*k[]	*k[]	*k[]
*G:	*G:	*G:	*G:
*M2/2	*M2/2	*M2/2	*M2/2
*met(C|)	*met(C|)	*met(C|)	*met(C|)
*mmet(c|)	*mmet(c|)	*mmet(c|)	*mmet(c|)
=1-	=1-	=1-	=1-
!!LO:TX:t=P:problem:Notatka od Xml-owca: Czołem. Tu miałem kilka zagwozdek, szczególnie rytmicznych, w środkowej części na 3.\nNa wniosek Emilii oparłem się na wersji z imslp. Stąd też metrum na 2/2 i 3/2, a nie 2/1 i 3/1 jak to było w zwyczaju.\nhttp&colon;//vmirror.imslp.org/files/imglnks/usimg/e/e0/IMSLP341611-PMLP550989-kustrinella.pdf	!	!	!
!!LO:TX:t=P:problem: all\right or middle	!	!	!
*2\right	*	*	*2\right
2dd\	0r	1r	2dd\
4dd\	.	.	4dd\
4dd\	.	.	4dd\
=2-	=2-	=2-	=2-
*	*	*2\right	*
4ee\	.	2g\	4ee\
4g/	.	.	8dd\L
.	.	.	8cc\J
4g/	.	4g\	8b\L
.	.	.	8cc\
!LO:TX:t=P:problem:kreska pseudotaktowa	!	!	!
4g/	.	4g\	8dd\
.	.	.	8b\J
=3-	=3-	=3-	=3-
4a\	1r	4a\	4cc\
8g/L	.	8g\L	4dd\
8f/J	.	8f\J	.
8e/L	.	8e\L	2ee\
8f/	.	8f\	.
8g/	.	8g\	.
8e/J	.	8e\J	.
*clefC4	*	*	*
*mclefF4	*	*	*
=4-	=4-	=4-	=4-
*	*2\right	*	*
2d\	2d\	4f#X\	4dd\
.	.	2g\	4b/
4d\	4d\	.	2a/
!LO:TX:t=P:problem:kreska pseudotaktowa	!	!LO:TX:t=P:problem:kreska pseudotaktowa	!
!	!	!LO:TX:a:t=P:problem:# above	!
4d\	4d\	4f#X\	.
=5-	=5-	=5-	=5-
!	!	!	!LO:TX:t=P:problem:kreska pseudotaktowa
4e\	4e\	4g\	1g
!	!	!LO:MO:mod=*null:null	!
*	*	*clefF4	*
4G/	8d\L	4G\	.
.	8c\	.	.
4G/	8B\	4G\	.
.	8c\	.	.
4G/	8d\	4G\	.
!	!LO:TX:t=P:problem:kreska pseudotaktowa	!	!
.	8B\J	.	.
=6-	=6-	=6-	=6-
4A/	4c\	4A\	4r
8G/L	4d\	8G\L	4gg\
8F/J	.	8F\J	.
*	*	*custos:E	*
!	!	!LO:LB:g=original	!
8E/L	2e\	8E\L	4gg\
8F/	.	8F\	.
8G/	.	8G\	4gg\
!LO:TX:t=P:problem:kreska pseudotaktowa	!	!	!
8E/J	.	8E\J	.
*custos:F#	*	*	*
!LO:LB:g=original	!	!	!
=7-	=7-	=7-	=7-
4F#X/	4A/	4F#X\	4aa\
4G/	4B\	4G\	8gg\L
.	.	.	8ff\J
*	*	*	*custos:ee
!	!	!	!LO:LB:g=original
2C/	2c\	2C/	8ee\L
.	.	.	8ff\
.	.	.	8gg\
.	.	.	8ee\J
=8-	=8-	=8-	=8-
!LO:TX:t=P:problem:kreska pseudotaktowa	!	!	!
1D	4A/	4D/	4ff#X\
!	!	!LO:MO:mod=*null:null	!
*	*	*clefC4	*
.	4B\	4d\	2gg\
.	2A/	4d\	.
.	.	4d\	4ff#X\
*	*clefF4	*	*
=9-	=9-	=9-	=9-
2G/	4r	4e\	1gg
.	4G\	8d\L	.
.	.	8c\J	.
4G/	4G\	8B\L	.
.	.	8c\	.
4G/	4G\	8d\	.
!	!	!LO:TX:t=P:problem:kreska pseudotaktowa	!
.	.	8B\J	.
*	*custos:A	*	*
!	!LO:LB:g=original	!	!
=10-	=10-	=10-	=10-
4A/	4A\	4c\	4r
8G/L	8G\L	4d\	4gg\
8Fny/J	8F\J	.	.
8E/L	8E\L	2e\	4gg\
8F/	8F\	.	.
8G/	8G\	.	4gg\
!LO:TX:t=P:problem:kreska pseudotaktowa	!LO:TX:t=P:problem:kreska pseudotaktowa	!	!
8E/J	8E\J	.	.
=11-	=11-	=11-	=11-
4F#X/	4F#X\	4A/	4aa\
4G/	4G\	4B\	8gg\L
.	.	.	8ffny\J
2C/	2C/	2c\	8ee\L
.	.	.	8ff\
.	.	.	8gg\
.	.	.	8ee\J
!LO:MO:mod=*null:null	!	!	!
*clefF4	*	*	*
=12-	=12-	=12-	=12-
2D/	4r	4A/	4ff#X\
.	4D/	4B\	2gg\
4D/	4D/	2A/	.
!LO:TX:t=P:problem:kreska pseudotaktowa	!LO:TX:t=P:problem:kreska pseudotaktowa	!	!
4D/	4D/	.	4ff#X\
=13-	=13-	=13-	=13-
4E\	4E\	1G	4gg\
8D/L	8D/L	.	4dd\
8C/J	8C/J	.	.
8BB/L	8BB/L	.	4dd\
8C/	8C/	.	.
8D/	8D/	.	4dd\
!	!LO:TX:t=P:problem:kreska pseudotaktowa	!	!
8BB/J	8BB/J	.	.
*custos:C	*	*	*
!LO:LB:g=original	!	!	!
=14-	=14-	=14-	=14-
4C/	4C/	4r	4ee\
4D/	4D/	4d\	8dd\L
.	.	.	8cc\J
*	*	*custos:d	*
!	!	!LO:LB:g=original	!
4GG/	4GG/	4d\	8b\L
.	.	.	8cc\
!LO:TX:t=P:problem:kreska pseudotaktowa	!LO:TX:t=P:problem:kreska pseudotaktowa	!	!
4G\	4G\	4d\	8dd\
.	.	.	8b\J
*	*	*	*custos:cc
!	!	!	!LO:LB:g=original
=15-	=15-	=15-	=15-
4A\	4A\	4c\	4cc\
8G\L	8G\L	8B\L	4gg\
8Fny\J	8Fny\J	8A\J	.
8E\L	8E\L	8G/L	4gg\
8F\	8F\	8A/	.
8G\	8G\	8B/	4gg\
!	!	!LO:TX:t=P:problem:kreska pseudotaktowa	!
8E\J	8E\J	8G/J	.
=16-	=16-	=16-	=16-
4F#X\	4F#X\	4A/	4aa\
4G\	4G\	4B\	8gg\L
.	.	.	8ffny\J
*	*custos:C	*	*
!LO:TX:t=P:problem:kreska pseudotaktowa	!LO:LB:g=original	!	!
2C/	2C/	2c\	8ee\L
.	.	.	8ff\
.	.	.	8gg\
.	.	.	8ee\J
=17-	=17-	=17-	=17-
1D	1D	4A/	4ff#X\
.	.	4B\	2gg\
.	.	2A/	.
.	.	.	4ff#X\
=18-	=18-	=18-	=18-
!LO:TX:t=P:problem:kreska pseudotaktowa	!	!	!
1GG	1GG	1G	1gg
!	!LO:MO:mod=*clefGv2	!	!
*	*clefC4	*	*
=19-	=19-	=19-	=19-
*M3/4	*M3/4	*M3/4	*M3/4
*met(3)	*met(3)	*met(3)	*met(3)
!	!	!	!LO:N:vis=0
!	!	!	!LO:TX:t=P:problem:VHV nie wy[wietla pauzy
4D/	4d\	2r	1.r
4D/	4d\	.	.
4C/	4c\	4ryy	.
=20-	=20-	=20-	=20-
*col	*	*	*
2G\	8B\L	4d\	.
.	8c\	.	.
.	8B\	4d\	.
.	8c\	.	.
*Xcol	*	*	*
!LO:TX:t=P:problem: nuta przekre[lona	!	!LO:TX:t=P:problem:kreska pseudotaktowa	!
4G\	8A\	4c\	.
.	8B\J	.	.
=21-	=21-	=21-	=21-
*	*col	*	*
4G\	2G/	8B\L	4dd\
.	.	8c\	.
4G\	.	8B\	4dd\
.	.	8c\	.
*	*Xcol	*	*
!	!LO:N:vis=2	!	!
4A\	4r	8A\	4cc\
.	.	8B\J	.
*custos:G	*	*	*
!LO:LB:g=original	!	!	!
=22-	=22-	=22-	=22-
*	*	*col	*
4G\	4G/	2G/	8b/L
!	!	!	!LO:SIC:s=8cc
.	.	.	8cc/J
!	!	!	!LO:SIC:s=8b
4G\	4G/	.	8b/L
!	!	!	!LO:SIC:s=8cc
.	.	.	8cc/J
!LO:TX:t=P:problem:kreska pseudotaktowa	!	!	!
*	*	*Xcol	*
!	!	!	!LO:SIC:s=8a
4Fny\	4Fny/	4r	8a/L
.	.	.	8b/J
=23-	=23-	=23-	=23-
*	*	*	*col
4E\	8E/L	4G/	2g/
.	8F/	.	.
4E\	8E/	4G/	.
.	8F/	.	.
*	*	*	*Xcol
!	!	!	!LO:N:vis=2
4D/	8D/	4Fny/	4r
.	8E/J	.	.
*	*	*custos:E	*
!	!	!LO:LB:g=original	!
=24-	=24-	=24-	=24-
*col	*col	*	*
2C/	2C/	8E/L	4gg\
.	.	8F/	.
.	.	8E/	4gg\
.	.	8F/	.
*Xcol	*Xcol	*	*
!LO:TX:t=P:problem:kreska pseudotaktowa	!LO:N:vis=2	!	!
4D/	4r	8D/	4ffny\
.	.	8E/J	.
*	*	*	*custos:ee
!	!	!	!LO:LB:g=original
=25-	=25-	=25-	=25-
*col	*	*	*
!LO:SIC:v:s=2C/	!	!	!
*	*	*col	*
2C#/	4c\	2C/	8ee\L
!	!	!	!LO:SIC:s=8ff
.	.	.	8ff\J
!	!	!	!LO:SIC:s=8ee
.	4c\	.	8ee\L
!	!	!	!LO:SIC:s=8ff
.	.	.	8ff\J
*Xcol	*	*Xcol	*
!	!	!	!LO:SIC:s=8dd
4BB/	4B\	4r	8dd\L
.	.	.	8ee\J
=26-	=26-	=26-	=26-
*	*	*	*col
4AA/	8A\L	4c\	2cc\
.	8B-\	.	.
4A\	8A\	4c\	.
.	8B-\	.	.
*	*	*	*Xcol
!LO:TX:t=P:problem:kreska pseudotaktowa	!	!LO:TX:t=P:problem:kreska pseudotaktowa	!
!	!	!LO:SIC:v:s=4B-	!
4G\	8G\	4B\	4r
!	!LO:TX:t=P:problem:kreska pseudotaktowa	!	!
.	8A\J	.	.
*	*custos:f	*	*
!	!LO:LB:g=original	!	!
=27-	=27-	=27-	=27-
*col	*col	*	*
2F\	2F/	8A\L	4cc\
!	!	!LO:TX:a:t=P:problem:♭ above	!
.	.	8B-X\	.
.	.	8A\	4cc\
.	.	8B-\	.
*Xcol	*Xcol	*	*
!	!LO:N:vis=2	!	!LO:SIC:v:s=4b-
4G\	4r	8G\	4b/
.	.	8A\J	.
=28-	=28-	=28-	=28-
*	*	*col	*
4F\	4F/	2F/	8a/L
!	!	!	!LO:SIC:s=8b-
.	.	.	8b-X/J
!	!	!	!LO:SIC:s=8a
4F\	4F/	.	8a/L
!	!	!	!LO:SIC:s=8b-
.	.	.	8b-/J
*	*	*Xcol	*
!LO:TX:t=P:problem:kreska pseudotaktowa	!	!LO:N:vis=2	!
!	!	!	!LO:SIC:s=8g
4E\	4E/	4r	8g/L
.	.	.	8a/J
=29-	=29-	=29-	=29-
*col	*col	*	*
2D\	2D/	4d\	8f/L
!	!	!	!LO:SIC:s=8g
.	.	.	8g/J
!	!	!	!LO:SIC:s=8f
.	.	4d\	8f/L
!	!	!	!LO:SIC:s=8g
.	.	.	8g/J
*Xcol	*Xcol	*	*
!	!	!	!LO:SIC:s=8e
4A\	4A/	4c#X\	8e/L
.	.	.	8f/J
=30-	=30-	=30-	=30-
*	*col	*	*col
4D/	2D/	4d\	2d/
4D/	.	4d\	.
*	*Xcol	*	*Xcol
!LO:TX:t=P:problem:kreska pseudotaktowa	!	!	!
!	!LO:N:vis=2	!	!
4Cny/	4r	4cny\	4r
*custos:G	*	*	*
!LO:LB:g=original	!	!	!
=31-	=31-	=31-	=31-
*col	*col	*	*
2G\	2G/	8Bny\L	4dd\
.	.	8c\	.
.	.	8B\	4dd\
.	.	8c\	.
*Xcol	*Xcol	*	*
!	!LO:N:vis=2	!	!
4A\	4r	8A\	4cc\
.	.	8B\J	.
*	*	*	*custos:b
=32-	=32-	=32-	=32-
!	!	!	!LO:LB:g=original
*	*	*Xcol	*
4G\	4G/	2G/	8bny/L
!	!	!	!LO:SIC:s=8cc
.	.	.	8cc/J
!	!	!	!LO:SIC:s=8b
4G\	4G/	.	8b/L
!	!	!	!LO:SIC:s=8cc
.	.	.	8cc/J
*	*	*Xcol	*
!LO:TX:t=P:problem:kreska pseudotaktowa	!	!LO:N:vis=2	!
!	!	!	!LO:SIC:s=8a
4F\	4F/	4r	8a/L
.	.	.	8b/J
*	*	*custos:e	*
!	!	!LO:LB:g=original	!
=33-	=33-	=33-	=33-
*col	*col	*	*
2.E\	2E/	4e\	4.g#X/
.	.	4e\	.
.	.	.	8a/
*Xcol	*Xcol	*	*
!	!LO:N:vis=2	!	!
.	4r	4d\	4b/
=34-	=34-	=34-	=34-
4A\	4A/	8c\L	2a/
.	.	8d\	.
4A\	4A/	8c\	.
.	.	8d\	.
!LO:TX:t=P:problem:kreska pseudotaktowa	!	!	!
4G\	4G/	8B\	4r
.	.	8c\J	.
=35-	=35-	=35-	=35-
*	*	*col	*
4F\	8F/L	2A\	4aa\
.	8G/	.	.
4F\	8F/	.	4aa\
.	8G/	.	.
*	*	*Xcol	*
4E\	8E/	4r	4gg\
.	8F/J	.	.
=36-	=36-	=36-	=36-
*	*col	*	*
4D/	2D/	4d\	8ff#X\L
!	!	!	!LO:SIC:s=8gg
.	.	.	8gg\J
!	!	!	!LO:SIC:s=8ff#
4D/	.	4d\	8ff#\L
!	!	!	!LO:SIC:s=8gg
.	.	.	8gg\J
*	*Xcol	*	*
!LO:TX:t=P:problem:kreska pseudotaktowa	!LO:N:vis=2	!	!LO:SIC:s=8ee
4C/	4r	4c\	8ee\L
.	.	.	8ff#\J
=37-	=37-	=37-	=37-
*	*	*	*col
4BB/	4d\	8B\L	2dd\
.	.	8c\	.
4BB/	4d\	8B\	.
.	.	8c\	.
*	*	*	*Xcol
4AA/	4c\	8A\	4r
.	.	8B\J	.
=38-	=38-	=38-	=38-
*col	*	*col	*
2GG/	8Bny\L	2G/	4dd\
.	8c\	.	.
.	8B\	.	4dd\
.	8c\	.	.
*Xcol	*	*	*
!LO:TX:t=P:problem:kreska pseudotaktowa	!	!	!
*	*	*Xcol	*
4AA/	8A\	4r	4cc\
.	8B\J	.	.
=39-	=39-	=39-	=39-
*col	*col	*	*
2GG/	2G/	4g\	8b/L
!	!	!	!LO:SIC:s=8cc
.	.	.	8cc/J
!	!	!	!LO:SIC:s=8b
.	.	4g\	8b/L
!	!	!	!LO:SIC:s=8cc
.	.	.	8cc/J
*Xcol	*Xcol	*	*
!	!LO:N:vis=2	!	!LO:SIC:s=8a
4FF/	4r	4fny\	8a/L
.	.	.	8b/J
*	*custos:c	*	*custos:g
!	!LO:LB:g=original	!	!LO:LB:g=original
=40-	=40-	=40-	=40-
4C/	4c\	8e\L	4.gny/
.	.	8f\	.
4C/	4c\	8e\	.
.	.	8f\	8a/
!LO:TX:t=P:problem:kreska pseudotaktowa	!	!	!
4BB/	4B\	8d\	4b/
!	!	!LO:TX:t=P:problem:kreska pseudotaktowa	!
.	.	8e\J	.
*custos:AA	*	*custos:c	*
!LO:LB:g=original	!	!LO:LB:g=original	!
=41-	=41-	=41-	=41-
*	*	*	*col
4AA/	8A\L	8c\L	2cc\
.	8B-X\	8d\	.
4A\	8A\	8c\	.
.	8B-\	8d\	.
*	*	*	*Xcol
!	!	!LO:SIC:v:s=8B-	!
4G\	8G/	8B\	2r
!	!	!LO:TX:t=P:problem:kreska pseudotaktowa	!
.	8A/J	8c\J	.
=42-	=42-	=42-	=42-
4F\	8F/L	8A\L	.
!	!	!LO:TX:a:t=P:problem:♭ above	!
.	8G/	8B-X\	.
4F\	8F/	8A\	2r
.	8G/	8B-\	.
!LO:TX:t=P:problem:kreska pseudotaktowa	!	!	!
4E\	8E/	8G\	.
!	!	!LO:TX:t=P:problem:kreska pseudotaktowa	!
.	8F/J	8A\J	.
!LO:MO:mod==43	!LO:MO:mod==43	!LO:MO:mod==43	!LO:MO:mod==43
=43||-	=43||-	=43||-	=43-
*yyM2/2	*yyM2/2	*yyM2/2	*yyM2/2
*yymet(C|)	*yymet(C|)	*yymet(C|)	*yymet(C|)
*col	*col	*	*
2D\	2D/	8F/L	4aa\
.	.	8G/	.
.	.	8F/	4aa\
.	.	8G/	.
*Xcol	*Xcol	*	*
4E\	4r	8E/	4gg\
.	.	8F/J	.
=44-	=44-	=44-	=44-
*col	*	*col	*
2D\	4d\	2D/	8ffny\L
.	.	.	8gg\J
*Xcol	*	*Xcol	*
.	4d\	.	8ff\L
.	.	.	8gg\J
!	!LO:TX:a:t=P:problem:# above	!	!
4A\	4c#X\	4A/	8ee\L
.	.	.	8ff\J
!!LO:MO:ori
2r	2ryy	2ryy	2ryy
*	*	*clefF4	*
!!LO:MO:end
!LO:MO:mod==45||	!LO:MO:mod==45||	!LO:MO:mod==45||	!LO:MO:mod==45||
=45-	=45-	=45-	=45-
*M2/2	*M2/2	*M2/2	*M2/2
*met(C|)	*met(C|)	*met(C|)	*met(C|)
*mmet(c|)	*mmet(c|)	*mmet(c|)	*mmet(c|)
4.D/	4.f\	4.D/	4.dd\
8C/	8e\	8C/	8ee\
4BB-X/	1d\	4BB-X/	4ff\
4GG/	.	4GG/	4gg\
=46-	=46-	=46-	=46-
!LO:TX:t=P:problem:kreska pseudotaktowa	!	!	!
1AA	.	1AA	2ee\
.	2c#X\	.	2ee\
=47-	=47-	=47-	=47-
1D	1d	1D	2dd\
.	.	.	16r
.	.	.	16a/LL
.	.	.	16b/
.	.	.	16cc/JJ
.	.	.	8.dd\L
.	.	.	16cc\Jk
!	!	!LO:MO:mod=*null:null	!
*	*clefF4	*clefC4	*custos:b
!	!	!	!LO:LB:g=original
=48-	=48-	=48-	=48-
2G\	2r	16r	2b/
*	*	*custos:d	*
!	!	!LO:LB:g=original	!
.	.	16d\LL	.
.	.	16e\	.
.	.	16f\JJ	.
.	.	8.g\L	.
.	.	16f\Jk	.
!LO:TX:t=P:problem:kreska pseudotaktowa	!	!	!
2C/	2C/	4e\	16r
.	.	.	16g/LL
.	.	.	16a/
.	.	.	16b/JJ
.	.	8a\L	8.cc\L
!	!	!LO:TX:t=P:problem:kreska pseudotaktowa	!
.	.	8g\J	.
!	!	!	!LO:TX:t=P:problem:kreska pseudotaktowa
.	.	.	16b\Jk
=49-	=49-	=49-	=49-
1D	1D	4f#X\	4a/
.	.	4g\	4b/
!	!	!LO:TX:t=P:problem:mixed beam	!
.	.	16f#X\LL	2a/
.	.	16A/	.
.	.	16Bny/	.
.	.	16c/JJ	.
.	.	8.d\L	.
!	!	!LO:TX:t=P:problem:kreska pseudotaktowa	!
.	.	16c\Jk	.
*custos:GG	*custos:GG	*	*
!LO:LB:g=original	!LO:LB:g=original	!	!
=50-	=50-	=50-	=50-
2GG/	16GG/LL	2B\	2g/
.	16D/	.	.
.	16E/	.	.
.	16F/JJ	.	.
.	8.G\L	.	.
.	16F\Jk	.	.
!LO:TX:t=P:problem:kreska pseudotaktowa	!	!	!
2C/	4E\	16r	2r
.	.	16G/LL	.
.	.	16A/	.
.	.	16B/JJ	.
.	8.A\L	8.c\L	.
!	!LO:TX:t=P:problem:kreska pseudotaktowa	!	!
.	16G\Jk	16B\Jk	.
=51-	=51-	=51-	=51-
1D	4F#X\	4A/	1r
.	4G\	4B\	.
.	16F#X\LL	2A/	.
.	16A\	.	.
.	16nyB\	.	.
.	16cny\JJ	.	.
.	8.d\L	.	.
!	!LO:TX:t=P:problem:kreska pseudotaktowa	!	!
.	16c\Jk	.	.
=52-	=52-	=52-	=52-
2GG/	2B\	2G/	16r
.	.	.	16dd\LL
.	.	.	16ee\
.	.	.	16ff\JJ
.	.	.	8.gg\L
.	.	.	16ff\Jk
!LO:TX:t=P:problem:kreska pseudotaktowa	!	!	!LO:TX:t=P:problem:kreska pseudotaktowa
2C/	2r	16r	2ee\
.	.	16G/LL	.
.	.	16A/	.
.	.	16B/JJ	.
.	.	8.c\L	.
!	!	!LO:TX:t=P:problem:kreska pseudotaktowa	!
.	.	16B\Jk	.
=53-	=53-	=53-	=53-
2AA/	4r	2A/	16r
.	.	.	16ee\LL
.	.	.	16ff\
.	.	.	16gg\JJ
.	4AA/	.	8.aa\L
.	.	.	16gg\Jk
2D/	2D/	16r	2ff#X\
.	.	16A\LL	.
.	.	16B\	.
.	.	16c\JJ	.
.	.	8.d\L	.
!	!	!LO:TX:t=P:problem:kreska pseudotaktowa	!
.	.	16c\Jk	.
*	*	*	*custos:dd
!	!	!	!LO:LB:g=original
=54-	=54-	=54-	=54-
2GG/	2GG/	4B\	16r
.	.	.	16dd\LL
.	.	.	16ee\
.	.	.	16ff#y\JJ
.	.	8.e\L	8.gg\L
.	.	16d\Jk	16ff#\Jk
!	!LO:TX:t=P:problem:kreska pseudotaktowa	!LO:TX:a:t=P:problem:# above	!
1AA/	2AA/	4c#X\	4ee\
!	!	!LO:TX:t=P:problem:kreska pseudotaktowa	!LO:TX:t=P:problem:kreska pseudotaktowa
.	.	4d\	4ff#\
!	!LO:MO:mod=*clefGv2	!	!
*	*clefC4	*	*
=55-	=55-	=55-	=55-
.	4r	16c#X\LL	2ee\
.	.	16e\	.
.	.	16fny\	.
.	.	16g\JJ	.
.	4A/	8.a\L	.
.	.	16g\Jk	.
*	*custos:D	*	*
!LO:TX:t=P:problem:kreska pseudotaktowa	!LO:LB:g=original	!	!
2DD/	16D/LL	2f#X\	2dd\
.	16A/	.	.
.	16B/	.	.
.	16c/JJ	.	.
.	8.d\L	.	.
!	!LO:TX:t=P:problem:kreska pseudotaktowa	!	!
.	16c\Jk	.	.
*	*	*custos:d	*
!	!	!LO:LB:g=original	!
=56-	=56-	=56-	=56-
2GG/	2B\	16r	1r
.	.	16d\LL	.
.	.	16e\	.
.	.	16f#\JJ	.
.	.	8.g\L	.
.	.	16f#\Jk	.
2C/	16r	4.e\	.
.	16G\LL	.	.
.	16A\	.	.
.	16B\JJ	.	.
.	8.c\L	.	.
!	!	!LO:TX:t=P:problem:kreska pseudotaktowa	!
.	.	8d\	.
!	!LO:TX:t=P:problem:kreska pseudotaktowa	!	!
.	16B\Jk	.	.
=57-	=57-	=57-	=57-
!LO:TX:t=P:problem:kreska pseudotaktowa	!	!	!
1AA	4A/	4c#X\	2r
.	2d\	4fny\	.
.	.	2e\	16r
.	.	.	16ee\LL
.	.	.	16ffny\
.	.	.	16gg\JJ
!	!LO:TX:t=P:problem:kreska pseudotaktowa	!	!
.	4c#X\	.	8.aa\L
!	!	!	!LO:TX:t=P:problem:kreska pseudotaktowa
.	.	.	16gg\Jk
=58-	=58-	=58-	=58-
!	!	!	!LO:TX:a:t=P:problem:# above
1D	2d\	16d\LL	2ff#X\
.	.	16A\	.
.	.	16B\	.
.	.	16c#\JJ	.
.	.	8.d\L	.
.	.	16c#\Jk	.
.	16r	4.B\	2r
.	16A\LL	.	.
.	16B\	.	.
.	16c#X\JJ	.	.
.	8.d\L	.	.
!	!	!LO:TX:t=P:problem:kreska pseudotaktowa	!
.	.	8A/	.
!	!LO:TX:t=P:problem:kreska pseudotaktowa	!	!
.	16c#\Jk	.	.
=59-	=59-	=59-	=59-
2GG/	2B\	2G/	16r
.	.	.	16dd\LL
.	.	.	16ee\
.	.	.	16ff#\JJ
.	.	.	8.gg\L
.	.	.	16ff#\Jk
!	!	!	!LO:TX:t=P:problem:kreska pseudotaktowa
2C/	16r	2C/	2ee\
.	16G/LL	.	.
.	16A/	.	.
.	16B/JJ	.	.
.	8.cny\L	.	.
.	16B\Jk	.	.
*	*custos:A	*clefF4	*custos:ee
!	!LO:LB:g=original	!	!LO:LB:g=original
=60-	=60-	=60-	=60-
2AA/	2A/	4r	16r
.	.	.	16ee\LL
.	.	.	16ff#\
.	.	.	16gg\JJ
!	!	!LO:SIC:v:s=4AA	!
.	.	4GG/	8.aa\L
.	.	.	16gg\Jk
!LO:TX:t=P:problem:kreska pseudotaktowa	!	!	!LO:TX:t=P:problem:kreska pseudotaktowa
2D/	16r	2D/	2ff#X\
.	16A\LL	.	.
.	16B\	.	.
.	16c\JJ	.	.
.	8.d\L	.	.
!	!LO:TX:t=P:problem:kreska pseudotaktowa	!	!
.	16c\Jk	.	.
=61-	=61-	=61-	=61-
2GG/	4B\	2G\	16r
.	.	.	16dd\LL
.	.	.	16ee\
.	.	.	16ffny\JJ
.	8e\L	.	8.gg\L
.	8d\J	.	.
.	.	.	16ff\Jk
*custos:AA	*	*	*
!LO:LB:g=original	!	!	!
1AA/	4c#X\	2A\	4ee\
!	!LO:TX:t=P:problem:kreska pseudotaktowa	!	!LO:TX:t=P:problem:kreska pseudotaktowa
.	4d\	.	4ff\
!	!	!LO:MO:mod=*clefGv2	!
*	*	*clefC4	*
=62-	=62-	=62-	=62-
.	2A/	16r	2ee\
*	*	*custos:e	*
!	!	!LO:LB:g=original	!
.	.	16e\LL	.
.	.	16f\	.
.	.	16g\JJ	.
.	.	8.a\L	.
.	.	16g\Jk	.
!LO:TX:t=P:problem:kreska pseudotaktowa	!	!LO:TX:t=P:problem:kreska pseudotaktowa	!
2DD/	16D/LL	2f#X\	2dd\
.	16A/	.	.
.	16B/	.	.
.	16c#/JJ	.	.
.	8d\L	.	.
!	!LO:TX:t=P:problem:kreska pseudotaktowa	!	!
.	8c#\J	.	.
=63-	=63-	=63-	=63-
2GG/	2B\	16r	4r
.	.	16d\LL	.
.	.	16e\	.
.	.	16fny\JJ	.
.	.	8.g\L	4gg\
.	.	16f\Jk	.
2C/	16r	4.e\	4gg\
!	!LO:SIC:v:s=16GLL	!	!
.	16Fny/LL	.	.
!	!LO:SIC:v:s=16A	!	!
.	16G/	.	.
!	!LO:SIC:v:s=16BJJ	!	!
.	16A/JJ	.	.
.	8cny\L	.	4gg\
!	!	!LO:TX:t=P:problem:kreska pseudotaktowa	!
.	8B\J	8d\	.
=64-	=64-	=64-	=64-
4AA/	4A/	4c#X\	4aa\
4BBny/	4B\	4d\	8gg\L
.	.	.	8ff\J
*	*custos:c	*	*
!LO:TX:t=P:problem:kreska pseudotaktowa	!LO:LB:g=original	!	!
!	!LO:SIC:v:s=8c#L	!	!
2C#X/	8c\L	2e\	8ee\L
.	8d\	.	8ff\
.	8e\	.	8gg\
!	!LO:TX:t=P:problem:kreska pseudotaktowa	!	!
!	!LO:SIC:v:s=8c#J	!	!
.	8c\J	.	8ee\J
=65-	=65-	=65-	=65-
2D/	2d\	4r	4ff#X\
.	.	4d\	2gg\
!	!LO:TX:t=P:problem:kreska pseudotaktowa	!	!
4D/	2D/	4d\	.
4D/	.	4cny\	4ff#X\
*	*	*	*custos:gg
!	!	!	!LO:LB:g=original
=66-	=66-	=66-	=66-
2G\	4r	4e\	1gg
.	4G/	8d\L	.
.	.	8c\J	.
4G\	4G/	8B\L	.
.	.	8c\	.
!LO:TX:t=P:problem:kreska pseudotaktowa	!	!	!
4G\	4G/	8d\	.
.	.	8B\J	.
*	*	*custos:c	*
!	!	!LO:LB:g=original	!
=67-	=67-	=67-	=67-
4A\	4A/	4c\	4r
8G\L	8G/L	4d\	4gg\
8F\J	8F/J	.	.
8E\L	8E/L	2e\	4gg\
8F\	8F/	.	.
8G\	8G/	.	4gg\
!	!LO:TX:t=P:problem:kreska pseudotaktowa	!	!
8E\J	8E/J	.	.
=68-	=68-	=68-	=68-
4F#X\	4F#X/	2d\	4aa\
4G\	4G/	.	8gg\L
.	.	.	8ffny\J
!LO:TX:t=P:problem:kreska pseudotaktowa	!	!	!
2Cny/	2C/	2c\	8ee\L
.	.	.	8ff\
.	.	.	8gg\
.	.	.	8ee\J
*custos:D	*	*	*
!LO:LB:g=original	!	!	!
=69-	=69-	=69-	=69-
1D	1D	4A/	4ff#X\
.	.	4d\	2gg\
.	.	4d\	.
!	!	!	!LO:TX:t=P:problem:kreska pseudotaktowa
!	!	!	!LO:TX:a:t=P:problem:# above
.	.	4d\	4ff#X\
=70-	=70-	=70-	=70-
!	!LO:TX:t=P:problem:kreska pseudotaktowa	!	!
2G\	1G	4e\	4gg\
.	.	8d\L	4dd\
.	.	8c\J	.
4GG/	.	8B\L	4dd\
.	.	8c\	.
!LO:TX:t=P:problem:kreska pseudotaktowa	!	!	!
4GG/	.	8d\	4dd\
.	.	8B\J	.
=71-	=71-	=71-	=71-
4C/	4r	4c\	4ee\
4D/	4d\	4d\	8dd\L
.	.	.	8cc\J
4GG/	4d\	2G/	8b\L
.	.	.	8cc\
4G\	4d\	.	8dd\
!	!	!	!LO:TX:t=P:problem:kreska pseudotaktowa
.	.	.	8b\J
=72-	=72-	=72-	=72-
4A\	4c\	4A/	4cc\
8G\L	8B\L	8G/L	4gg\
8Fny\J	8A\J	8F/J	.
*	*custos:G	*	*
!	!LO:LB:g=original	!	!
8E\L	8G/L	8E/L	4gg\
8F\	8A/	8F/	.
8G\	8B/	8G/	4gg\
!LO:TX:t=P:problem:kreska pseudotaktowa	!LO:TX:t=P:problem:kreska pseudotaktowa	!	!
8E\J	8G/J	8E/J	.
*	*	*custos:F#	*custos:aa
!	!	!LO:LB:g=original	!LO:LB:g=original
=73-	=73-	=73-	=73-
4F#X\	4A/	4F#X/	4aa\
4G\	4B\	4G/	8gg\L
.	.	.	8ffny\J
2C/	2c\	2C/	8ee\L
.	.	.	8ff\
.	.	.	8gg\
.	.	.	8ee\J
=74-	=74-	=74-	=74-
0D	2A/	0D	2ff#X\
.	2B-X\	.	1gg\
=75-	=75-	=75-	=75-
.	1A	.	.
.	.	.	2ff#X\
=76-	=76-	=76-	=76-
!	!LO:N:acc=#	!	!
!LO:SIC:s=1GG;	!LO:SIC:s=1B;	!LO:SIC:s=1G;	!LO:SIC:s=1gg;
1GGl;;	1Bnl;;	1Gl;;	1ggl;;
==	==	==	==
*-	*-	*-	*-
!!!system-decoration: [(g1)]s4
!!!RDF**kern: l = terminal long
!!!ENC: Andrzej Gręziak
!!!END: 2022-11-04
!!!ENC: Jan Barakat
!!!END: 2022-11-16
!!!EST: revision finished 2022-11-29
!!!YEC: Copyright 2022 Narodowy Instytut Fryderyka Chopina (https://polishscores.org)
!!!YEM: License CC-BY-4.0 (https://creativecommons.org/licenses/by/4.0)
!!!ENC-modern: Andrzej Borzym
!!!END-modern: 2022-11-29
